src/assets/filled/Tether.svg

<svg width="24" height="24" viewBox="0 0 24 24"  xmlns="http://www.w3.org/2000/svg">
<path d="M21.7101 9.89937L19.3101 5.07938C18.8401 4.12938 17.5901 3.35938 16.5301 3.35938H7.4701C6.4101 3.35938 5.1601 4.12938 4.6901 5.07938L2.29009 9.89937C1.71009 11.0594 2.03009 12.7094 2.98009 13.5794L9.9101 19.8694C11.0601 20.9094 12.9301 20.9094 14.0801 19.8694L21.0101 13.5794C21.9701 12.7094 22.2901 11.0494 21.7101 9.89937ZM16.0001 9.24938H12.7501V14.4994C12.7501 14.9094 12.4101 15.2494 12.0001 15.2494C11.5901 15.2494 11.2501 14.9094 11.2501 14.4994V9.24938H8.0001C7.5901 9.24938 7.2501 8.90938 7.2501 8.49938C7.2501 8.08938 7.5901 7.74938 8.0001 7.74938H16.0001C16.4101 7.74938 16.7501 8.08938 16.7501 8.49938C16.7501 8.90938 16.4101 9.24938 16.0001 9.24938Z" />
</svg>

<?xml version="1.0" encoding="UTF-8"?>
<svg width="24" height="24" viewBox="0 0 24 24" xmlns="http://www.w3.org/2000/svg">
 <path d="m21.71 9.8994-2.4-4.82c-0.47-0.95-1.72-1.72-2.78-1.72h-9.06c-1.06 0-2.31 0.77-2.78 1.72l-2.4 4.82c-0.58 1.16-0.26 2.81 0.69 3.68l6.93 6.29c1.15 1.04 3.02 1.04 4.17 0l6.93-6.29c0.96-0.87 1.28-2.53 0.7-3.68zm-5.71-0.64999h-3.25v5.25c0 0.41-0.34 0.75-0.75 0.75s-0.75-0.34-0.75-0.75v-5.25h-3.25c-0.41 0-0.75-0.34-0.75-0.75s0.34-0.75 0.75-0.75h8c0.41 0 0.75 0.34 0.75 0.75s-0.34 0.75-0.75 0.75z"/>
</svg>
